packages/design-system/src/icons/assets/ic_link.svg

<svg xmlns="http://www.w3.org/2000/svg" width="20" height="20" fill="none"><path fill="#121212" d="M15 5h-3c-.55 0-1 .45-1 1s.45 1 1 1h3c1.65 0 3 1.35 3 3s-1.35 3-3 3h-3c-.55 0-1 .45-1 1s.45 1 1 1h3c2.76 0 5-2.24 5-5s-2.24-5-5-5m-9 5c0 .55.45 1 1 1h6c.55 0 1-.45 1-1s-.45-1-1-1H7c-.55 0-1 .45-1 1m2 3H5c-1.65 0-3-1.35-3-3s1.35-3 3-3h3c.55 0 1-.45 1-1s-.45-1-1-1H5c-2.76 0-5 2.24-5 5s2.24 5 5 5h3c.55 0 1-.45 1-1s-.45-1-1-1"/></svg>

<svg width="20" height="20" viewBox="0 0 20 20" fill="none" xmlns="http://www.w3.org/2000/svg">
<path d="M15 5H12C11.45 5 11 5.45 11 6C11 6.55 11.45 7 12 7H15C16.65 7 18 8.35 18 10C18 11.65 16.65 13 15 13H12C11.45 13 11 13.45 11 14C11 14.55 11.45 15 12 15H15C17.76 15 20 12.76 20 10C20 7.24 17.76 5 15 5ZM6 10C6 10.55 6.45 11 7 11H13C13.55 11 14 10.55 14 10C14 9.45 13.55 9 13 9H7C6.45 9 6 9.45 6 10ZM8 13H5C3.35 13 2 11.65 2 10C2 8.35 3.35 7 5 7H8C8.55 7 9 6.55 9 6C9 5.45 8.55 5 8 5H5C2.24 5 0 7.24 0 10C0 12.76 2.24 15 5 15H8C8.55 15 9 14.55 9 14C9 13.45 8.55 13 8 13Z" fill="#121212"/>
</svg>
